dhis-2/dhis-support/dhis-support-system/src/main/resources/SVGs/clinical_a_negative.svg

<svg width="48" height="48" viewBox="0 0 48 48" fill="none" xmlns="http://www.w3.org/2000/svg">
<path fill-rule="evenodd" clip-rule="evenodd" d="M0 0V47.9994H47.9994V0H0ZM20.5227 5.86903H27.4767C27.8426 5.86903 28.1386 6.16452 28.1386 6.53112V9.99397C28.1386 10.3609 27.8426 10.6559 27.4767 10.6559H27.2167V11.9079H27.2337C27.4837 11.9079 27.6837 12.1098 27.6837 12.3588V37.1595V38.0015V38.4525H27.6817C27.6797 39.7675 26.9777 40.9805 25.8397 41.6385C24.6997 42.2965 23.2957 42.2965 22.1557 41.6385C21.0187 40.9805 20.3177 39.7665 20.3157 38.4525V38.4485V38.0015V37.1595V12.3588C20.3157 12.1098 20.5157 11.9079 20.7657 11.9079H20.7827V10.6559H20.5227C20.1567 10.6559 19.8608 10.3609 19.8608 9.99397V6.53112C19.8608 6.16462 20.1567 5.86903 20.5227 5.86903ZM21.6837 10.6559V12.3568C21.6837 12.6068 21.4837 12.8068 21.2337 12.8068H21.2167V20.6657H21.2127V37.3495V37.9855V38.3235V38.3275C21.2137 39.3215 21.7447 40.2405 22.6047 40.7375C23.4677 41.2355 24.5297 41.2355 25.3927 40.7375C26.2537 40.2405 26.7837 39.3225 26.7847 38.3275H26.7867V37.9855V37.3495V20.6657H26.7827V12.8088H23.1597C22.9327 12.8088 22.7497 12.6258 22.7497 12.3978V12.3178C22.7497 12.0908 22.9327 11.9079 23.1597 11.9079H26.3157V10.6559H21.6837ZM22.4257 19.7438H22.5287H25.4707H25.5737H25.9467V25.9837V32.0856V37.6425V38.0875V38.3255H25.9447C25.9437 39.0205 25.5737 39.6615 24.9727 40.0095C24.3697 40.3565 23.6277 40.3565 23.0247 40.0095C22.4237 39.6615 22.0527 39.0205 22.0527 38.3255V38.3235V38.0895V37.6445V32.0876V32.0836V31.8476V31.4016V25.9857V19.7458L22.4257 19.7438Z" fill="#333333"/>
</svg>

<?xml version="1.0" encoding="UTF-8" standalone="no"?>
<!-- Created with Inkscape (http://www.inkscape.org/) -->
<svg id="svg8" xmlns:rdf="http://www.w3.org/1999/02/22-rdf-syntax-ns#" xmlns="http://www.w3.org/2000/svg" xmlns:osb="http://www.openswatchbook.org/uri/2009/osb" height="48" width="48" version="1.1" xmlns:cc="http://creativecommons.org/ns#" viewBox="0 0 12.7 12.7" xmlns:dc="http://purl.org/dc/elements/1.1/">
 <title id="title4753">UIO-icon</title>
 <metadata id="metadata5">
  <rdf:RDF>
   <cc:Work rdf:about="">
    <dc:format>image/svg+xml</dc:format>
    <dc:type rdf:resource="http://purl.org/dc/dcmitype/StillImage"/>
    <dc:title>UIO-icon</dc:title>
    <dc:creator>
     <cc:Agent>
      <dc:title>Joaquín Urbano</dc:title>
     </cc:Agent>
    </dc:creator>
    <dc:rights>
     <cc:Agent>
      <dc:title>GPL</dc:title>
     </cc:Agent>
    </dc:rights>
   </cc:Work>
  </rdf:RDF>
 </metadata>
 <g id="layer1" transform="translate(0,-284.3)">
  <path id="rect4831" d="m0 0v48h48v-48h-48zm20.523 5.8691h6.954c0.366 0 0.662 0.2955 0.662 0.6621v3.4629c0 0.3669-0.296 0.6619-0.662 0.6619h-0.26v1.252h0.017c0.25 0 0.45 0.202 0.45 0.451v24.801 0.842 0.451h-0.002c-0.002 1.315-0.704 2.528-1.842 3.186-1.14 0.658-2.544 0.658-3.684 0-1.137-0.658-1.838-1.872-1.84-3.186v-0.004-0.447-0.842-24.801c0-0.249 0.2-0.451 0.45-0.451h0.017v-1.252h-0.26c-0.366 0-0.662-0.295-0.662-0.6619v-3.4629c0-0.3665 0.296-0.6621 0.662-0.6621zm1.161 4.7869v1.701c0 0.25-0.2 0.45-0.45 0.45h-0.017v7.859h-0.004v16.684 0.636 0.338 0.004c0.001 0.994 0.532 1.913 1.392 2.41 0.863 0.498 1.925 0.498 2.788 0 0.861-0.497 1.391-1.415 1.392-2.41h0.002v-0.342-0.636-16.684h-0.004v-7.857h-3.623c-0.227 0-0.41-0.183-0.41-0.411v-0.08c0-0.227 0.183-0.41 0.41-0.41h3.156v-1.252h-4.632zm0.742 9.088h0.103 2.942 0.103 0.373v6.24 6.102 5.557 0.445 0.238h-0.002c-0.001 0.695-0.371 1.336-0.972 1.684-0.603 0.347-1.345 0.347-1.948 0-0.601-0.348-0.972-0.989-0.972-1.684v-0.002-0.234-0.445-5.557-0.004-0.236-0.446-5.416-6.24l0.373-0.002z" fill-rule="evenodd" fill-opacity=".99505" transform="matrix(.26458 0 0 .26458 0 284.3)" fill="#333"/>
 </g>
</svg>
